**kern	**silbe	**kern	**silbe	**harmony	**phrase	**leadinstrument	**rhyme	**timestamp	**harte
*ICvox	*	*ICvox	*	*M4/4	*	*	*	*	*M4/4
*VRlead	*	*VRharmonize	*	*	*	*	*	*	*
*Hstimme	*	*Nstimme	*	*	*	*	*	*	*
*d:	*	*d:	*	*d:	*d:	*d:	*	*d:	*d:
*M4/4	*	*M4/4	*	*	*	*	*	*	*
*clefC3	*	*clefC3	*	*	*	*	*	*	*
r;	.	r;	.	1r;	.	r	.	0	N.C.
=1	=1	=1	=1	=1	=1	=1	=1	=1	=1
*>Letter>A	*>Letter>A	*>Letter>A	*>Letter>A	*>Letter>A	*>Letter>A	*>Letter>A	*>Letter>A	*>Letter>A	*>Letter>A
*>Label>Intro	*>Label>Intro	*>Label>Intro	*>Label>Intro	*>Label>Intro	*>Label>Intro	*>Label>Intro	*>Label>Intro	*>Label>Intro	*>Label>Intro
16d	Shoo!	1r	.	1Dm	newline	guitar	A	0.392	D:min
8.r	.	.	.	.	.	.	.	.	.
4r	.	.	.	.	.	.	.	.	.
4r	.	.	.	.	.	.	.	.	.
8.r	.	.	.	.	.	.	.	.	.
16d	Sh-	.	.	.	.	.	.	.	.
=2	=2	=2	=2	=2	=2	=2	=2	=2	=2
16d	-oo!	1r	.	1Dm	.	guitar	A	3.277	D:min
8.r	.	.	.	.	.	.	.	.	.
4r	.	.	.	.	.	.	.	.	.
4r	.	.	.	.	.	.	.	.	.
8.r	.	.	.	.	.	.	.	.	.
16d	Sh-	.	.	.	.	.	.	.	.
=3	=3	=3	=3	=3	=3	=3	=3	=3	=3
16d	-oo!	1r	.	1Dm	.	guitar	A	6.163	D:min
8.r	.	.	.	.	.	.	.	.	.
4r	.	.	.	.	.	.	.	.	.
4r	.	.	.	.	.	.	.	.	.
8.r	.	.	.	.	.	.	.	.	.
16d	Sh-	.	.	.	.	.	.	.	.
=4	=4	=4	=4	=4	=4	=4	=4	=4	=4
16d	-oo!	1r	.	1Dm	.	guitar	A	9.049	D:min
16r	.	.	.	.	.	.	.	.	.
8r	.	.	.	.	.	.	.	.	.
4r	.	.	.	.	.	.	.	.	.
2r	.	.	.	.	.	.	.	.	.
=5	=5	=5	=5	=5	=5	=5	=5	=5	=5
*>Letter>B	*>Letter>B	*>Letter>B	*>Letter>B	*>Letter>B	*>Letter>B	*>Letter>B	*>Letter>B	*>Letter>B	*>Letter>B
*>Label>Verse	*>Label>Verse	*>Label>Verse	*>Label>Verse	*>Label>Verse	*>Label>Verse	*>Label>Verse	*>Label>Verse	*>Label>Verse	*>Label>Verse
8r	.	1r	.	1Dm	newline	voice	.	11.934	D:min
8eq	_	.	.	.	.	.	.	.	.
8f	Here	.	.	.	.	.	.	.	.
16f	come	.	.	.	.	.	.	.	.
8.f	old	.	.	.	.	.	.	.	.
8f	flat	.	.	.	.	.	.	.	.
8d	top,	.	.	.	.	.	B	.	.
8c	he	.	.	.	.	.	.	.	.
8d	come	.	.	.	.	.	.	.	.
=6	=6	=6	=6	=6	=6	=6	=6	=6	=6
8r	.	1r	.	1Dm	.	voice	.	14.889	D:min
8eq	_	.	.	.	.	.	.	.	.
8f	groo-	.	.	.	.	.	A	.	.
16f	-ving	.	.	.	.	.	.	.	.
8.f	up	.	.	.	.	.	.	.	.
8f	slow-	.	.	.	.	.	(C	.	.
8d	-ly,	.	.	.	.	.	c)	.	.
8c	he	.	.	.	.	.	.	.	.
8d	got	.	.	.	.	.	B	.	.
=7	=7	=7	=7	=7	=7	=7	=7	=7	=7
8r	.	1r	.	1Dm	.	voice	.	17.843	D:min
8eq	_	.	.	.	.	.	.	.	.
4f	joo	.	.	.	.	.	A	.	.
8f	joo	.	.	.	.	.	A	.	.
8f	eye-	.	.	.	.	.	.	.	.
8d	-ball,	.	.	.	.	.	B	.	.
8c	he	.	.	.	.	.	.	.	.
8d	one	.	.	.	.	.	.	.	.
=8	=8	=8	=8	=8	=8	=8	=8	=8	=8
8r	.	1r	.	1Dm	.	voice	.	20.798	D:min
4f	ho-	.	.	.	.	.	(C	.	.
8d	-ly	.	.	.	.	.	c)	.	.
8f	rol-	.	.	.	.	.	(C	.	.
8d	-ler,	.	.	.	.	.	c)	.	.
8c	he	.	.	.	.	.	.	.	.
8d	got	.	.	.	.	.	B	.	.
=9	=9	=9	=9	=9	=9	=9	=9	=9	=9
8r	.	1r	.	1Am	newline	voice	.	23.753	A:min
8dq	_	.	.	.	.	.	.	.	.
8e	hair	.	.	.	.	.	.	.	.
4r	.	.	.	.	.	.	.	.	.
8d#q	_	.	.	.	.	.	.	.	.
4e	down	.	.	.	.	.	.	.	.
4r	.	.	.	.	.	.	.	.	.
=10	=10	=10	=10	=10	=10	=10	=10	=10	=10
4.e	to	1r	.	1Am	.	voice	A	26.661	A:min
8d	his	.	.	.	.	.	.	.	.
8e	knee	.	.	.	.	.	D	.	.
8r	.	.	.	.	.	.	.	.	.
4r	.	.	.	.	.	.	.	.	.
=11	=11	=11	=11	=11	=11	=11	=11	=11	=11
8~f	got	1r	.	1Gm	.	voice	B	29.57	G:1
8f	to	.	.	.	.	.	A	.	.
8~f	be	.	.	.	.	.	D	.	.
8f	a	.	.	.	.	.	.	.	.
8f	jo-	.	.	.	.	.	(C	.	.
8f	-ker,	.	.	.	.	.	c)	.	.
8f	he	.	.	.	.	.	D	.	.
8f	just	.	.	.	.	.	.	.	.
=12	=12	=12	=12	=12	=12	=12	=12	=12	=12
8f	do	1r	.	1Gm	.	voice	A	32.479	G:1
8f	what	.	.	.	.	.	.	.	.
8f	he	.	.	.	.	.	D	.	.
8f	please	.	.	.	.	.	D	.	.
4r	.	.	.	.	.	.	.	.	.
8.r	.	.	.	.	.	.	.	.	.
16d	Sh-	.	.	.	.	.	.	.	.
=13	=13	=13	=13	=13	=13	=13	=13	=13	=13
*>Letter>A	*>Letter>A	*>Letter>A	*>Letter>A	*>Letter>A	*>Letter>A	*>Letter>A	*>Letter>A	*>Letter>A	*>Letter>A
*>Label>Interlude	*>Label>Interlude	*>Label>Interlude	*>Label>Interlude	*>Label>Interlude	*>Label>Interlude	*>Label>Interlude	*>Label>Interlude	*>Label>Interlude	*>Label>Interlude
16d	-oo!	1r	.	1Dm	newline	guitar	A	35.387	D:min
8.r	.	.	.	.	.	.	.	.	.
4r	.	.	.	.	.	.	.	.	.
4r	.	.	.	.	.	.	.	.	.
8.r	.	.	.	.	.	.	.	.	.
16d	Sh-	.	.	.	.	.	.	.	.
=14	=14	=14	=14	=14	=14	=14	=14	=14	=14
16d	-oo!	1r	.	1Dm	.	guitar	A	38.232	D:min
8.r	.	.	.	.	.	.	.	.	.
4r	.	.	.	.	.	.	.	.	.
4r	.	.	.	.	.	.	.	.	.
8.r	.	.	.	.	.	.	.	.	.
16d	Sh-	.	.	.	.	.	.	.	.
=15	=15	=15	=15	=15	=15	=15	=15	=15	=15
16d	-oo!	1r	.	1Dm	.	guitar	A	41.077	D:min
8.r	.	.	.	.	.	.	.	.	.
4r	.	.	.	.	.	.	.	.	.
4r	.	.	.	.	.	.	.	.	.
8.r	.	.	.	.	.	.	.	.	.
16d	Sh-	.	.	.	.	.	.	.	.
=16	=16	=16	=16	=16	=16	=16	=16	=16	=16
16d	-oo!	1r	.	1Dm	.	guitar	A	43.923	D:min
16r	.	.	.	.	.	.	.	.	.
8r	.	.	.	.	.	.	.	.	.
4r	.	.	.	.	.	.	.	.	.
2r	.	.	.	.	.	.	.	.	.
=17	=17	=17	=17	=17	=17	=17	=17	=17	=17
*>Letter>B	*>Letter>B	*>Letter>B	*>Letter>B	*>Letter>B	*>Letter>B	*>Letter>B	*>Letter>B	*>Letter>B	*>Letter>B
*>Label>Verse	*>Label>Verse	*>Label>Verse	*>Label>Verse	*>Label>Verse	*>Label>Verse	*>Label>Verse	*>Label>Verse	*>Label>Verse	*>Label>Verse
8r	.	1r	.	1Dm	newline	voice	.	46.768	D:min
8eq	_	.	.	.	.	.	.	.	.
8f	He	.	.	.	.	.	D	.	.
8f	wear	.	.	.	.	.	.	.	.
8f	no	.	.	.	.	.	.	.	.
8f	shoe	.	.	.	.	.	A	.	.
8d	shine,	.	.	.	.	.	.	.	.
8c	he	.	.	.	.	.	D	.	.
8d	got	.	.	.	.	.	B	.	.
=18	=18	=18	=18	=18	=18	=18	=18	=18	=18
8r	.	8r	.	1Dm	.	voice	.	49.71	D:min
8eq	_	8Bq	_	.	.	.	.	.	.
4f	toe	4c	toe	.	.	.	C	.	.
8f	jam	8B	jam	.	.	.	.	.	.
8f	foot-	8c	foot-	.	.	.	.	.	.
8d	-ball,	8A	-ball,	.	.	.	B	.	.
8c	he	4r	.	.	.	.	D	.	.
8d	got	.	.	.	.	.	B	.	.
=19	=19	=19	=19	=19	=19	=19	=19	=19	=19
8r	.	8r	.	1Dm	.	voice	.	52.653	D:min
16eQ	_	8Bq	_	.	.	.	.	.	.
4f	mon-	4c	mon-	.	.	.	(E	.	.
8d	-key	8B	-key	.	.	.	d)	.	.
8e	fin-	8c	fin-	.	.	.	D	.	.
8d	-ger,	8A	-ger,	.	.	.	.	.	.
8c	he	4r	.	.	.	.	D	.	.
8d	shoot	.	.	.	.	.	A	.	.
=20	=20	=20	=20	=20	=20	=20	=20	=20	=20
8r	.	8r	.	1Dm	.	voice	.	55.595	D:min
.	.	8Bq	_	.	.	.	.	.	.
4f	Co-	4c	Co-	.	.	.	(C	.	.
8d	-ca	8B	-ca	.	.	.	c)	.	.
8f	Co-	8c	Co-	.	.	.	(C	.	.
8d	-la,	8A	-la,	.	.	.	c)	.	.
8c	he	4r	.	.	.	.	D	.	.
8d	say	.	.	.	.	.	.	.	.
=21	=21	=21	=21	=21	=21	=21	=21	=21	=21
8r	.	8r	.	1Am	newline	voice	.	58.538	A:min
8e	\\\"I	8c	\\\"I	.	.	.	.	.	.
.	.	8cq	_	.	.	.	.	.	.
8e	know	8c#	know	.	.	.	C	.	.
16d#	_	16B	_	.	.	.	.	.	.
[16e	you	[16c	you	.	.	.	A	.	.
8e]	_	8c]	_	.	.	.	.	.	.
8r	.	8r	.	.	.	.	.	.	.
4r	.	4r	.	.	.	.	.	.	.
=22	=22	=22	=22	=22	=22	=22	=22	=22	=22
8e	you	8e	you	1Am	.	voice	A	61.439	A:min
8e	know	8e	know	.	.	.	C	.	.
8d#	_	8d#	_	.	.	.	.	.	.
8e	me	8e	me	.	.	.	D	.	.
2r	.	2r	.	.	.	.	.	.	.
=23	=23	=23	=23	=23	=23	=23	=23	=23	=23
8~f	one	1r	.	1Gm	.	voice	.	64.341	G:1
8f	thing	.	.	.	.	.	D	.	.
8~f	I	.	.	.	.	.	.	.	.
8f	can	.	.	.	.	.	.	.	.
8~f	tell	.	.	.	.	.	.	.	.
8f	you	.	.	.	.	.	A	.	.
8f	is	.	.	.	.	.	.	.	.
8f	you	.	.	.	.	.	A	.	.
=24	=24	=24	=24	=24	=24	=24	=24	=24	=24
8f	got	2r	.	1N	.	voice	B	67.243	N.C.
8f	to	.	.	.	.	.	A	.	.
8f	be	.	.	.	.	.	D	.	.
[8f	free!\\\"	.	.	.	.	.	D	.	.
8f]	_	4r	.	.	.	.	.	.	.
8r	.	.	.	.	.	.	.	.	.
8d	Come	8A	Come	.	.	.	.	.	.
16d	to-	16A	to-	.	.	.	.	.	.
8gq	_	.	.	.	.	.	.	.	.
[16a	_	[16d	_	.	.	.	.	.	.
=25	=25	=25	=25	=25	=25	=25	=25	=25	=25
*>Letter>C	*>Letter>C	*>Letter>C	*>Letter>C	*>Letter>C	*>Letter>C	*>Letter>C	*>Letter>C	*>Letter>C	*>Letter>C
*>Label>Chorus	*>Label>Chorus	*>Label>Chorus	*>Label>Chorus	*>Label>Chorus	*>Label>Chorus	*>Label>Chorus	*>Label>Chorus	*>Label>Chorus	*>Label>Chorus
16a]	_	16d]	_	2.Bm	newline	voice	.	70.145	B:5
16eQ	_	16AQ	_	.	.	.	.	.	.
8.f#	_	8.B	_	.	.	.	.	.	.
4r	.	4r	.	.	.	.	.	.	.
4r	.	2r	.	.	.	.	.	.	.
8eq	_	.	.	.	.	.	.	.	.
4f#	right	.	.	4Am	.	voice	.	72.305	A:5
=26	=26	=26	=26	=26	=26	=26	=26	=26	=26
16e	now	1r	.	2Gm	.	voice	.	73.026	G:5
16d	_	.	.	.	.	.	.	.	.
8B	_	.	.	.	.	.	.	.	.
4r	.	.	.	.	.	.	.	.	.
4r	.	.	.	2Am	.	voice	.	74.466	A:5
8Aq	_	.	.	.	.	.	.	.	.
8B	o-	.	.	.	.	.	.	.	.
16d	-ver	.	.	.	.	.	.	.	.
16d	me!	.	.	.	.	.	D	.	.
=27	=27	=27	=27	=27	=27	=27	=27	=27	=27
*>Letter>A	*>Letter>A	*>Letter>A	*>Letter>A	*>Letter>A	*>Letter>A	*>Letter>A	*>Letter>A	*>Letter>A	*>Letter>A
*>Label>Interlude	*>Label>Interlude	*>Label>Interlude	*>Label>Interlude	*>Label>Interlude	*>Label>Interlude	*>Label>Interlude	*>Label>Interlude	*>Label>Interlude	*>Label>Interlude
2r	.	1r	.	1Dm	newline	guitar	.	75.906	D:min
4r	.	.	.	.	.	.	.	.	.
8.r	.	.	.	.	.	.	.	.	.
16d	Sh-	.	.	.	.	.	.	.	.
=28	=28	=28	=28	=28	=28	=28	=28	=28	=28
16d	-oo!	1r	.	1Dm	.	guitar	A	78.743	D:min
8.r	.	.	.	.	.	.	.	.	.
4r	.	.	.	.	.	.	.	.	.
4r	.	.	.	.	.	.	.	.	.
8.r	.	.	.	.	.	.	.	.	.
16d	Sh-	.	.	.	.	.	.	.	.
=29	=29	=29	=29	=29	=29	=29	=29	=29	=29
16d	-oo!	1r	.	1Dm	.	guitar	A	81.579	D:min
8.r	.	.	.	.	.	.	.	.	.
4r	.	.	.	.	.	.	.	.	.
4r	.	.	.	.	.	.	.	.	.
8.r	.	.	.	.	.	.	.	.	.
16d	Sh-	.	.	.	.	.	.	.	.
=30	=30	=30	=30	=30	=30	=30	=30	=30	=30
16d	-oo!	1r	.	1Dm	.	guitar	A	84.416	D:min
16r	.	.	.	.	.	.	.	.	.
8r	.	.	.	.	.	.	.	.	.
4r	.	.	.	.	.	.	.	.	.
2r	.	.	.	.	.	.	.	.	.
=31	=31	=31	=31	=31	=31	=31	=31	=31	=31
*>Letter>B	*>Letter>B	*>Letter>B	*>Letter>B	*>Letter>B	*>Letter>B	*>Letter>B	*>Letter>B	*>Letter>B	*>Letter>B
*>Label>Verse	*>Label>Verse	*>Label>Verse	*>Label>Verse	*>Label>Verse	*>Label>Verse	*>Label>Verse	*>Label>Verse	*>Label>Verse	*>Label>Verse
8r	.	1r	.	1Dm	newline	voice	.	87.252	D:min
8~eq	_	.	.	.	.	.	.	.	.
8~f	He	.	.	.	.	.	D	.	.
8~f	bag	.	.	.	.	.	.	.	.
16d	pro-	.	.	.	.	.	(C	.	.
16f	-duc	.	.	.	.	.	e	.	.
16r	.	.	.	.	.	.	.	.	.
8d	tion	.	.	.	.	.	E)	.	.
16r	.	.	.	.	.	.	.	.	.
8c	he	.	.	.	.	.	D	.	.
8d	got	.	.	.	.	.	B	.	.
=32	=32	=32	=32	=32	=32	=32	=32	=32	=32
8r	.	8r	.	1Dm	.	voice	.	90.172	D:min
8eq	_	8Bq	_	.	.	.	.	.	.
4f	wal-	4c	wal-	.	.	.	(B	.	.
8d	-rus	8~B	-rus	.	.	.	e)	.	.
8f	gum-	8c	gum-	.	.	.	(E	.	.
8d	-boot,	8~A	-boot,	.	.	.	a)	.	.
8c	he	4r	.	.	.	.	D	.	.
8d	got	.	.	.	.	.	B	.	.
=33	=33	=33	=33	=33	=33	=33	=33	=33	=33
8r	.	8r	.	1Dm	.	voice	.	93.091	D:min
16eQ	_	8Bq	_	.	.	.	.	.	.
4f	O-	4c	O-	.	.	.	.	.	.
8d	-no	8B	-no	.	.	.	.	.	.
8e	side-	8B	side-	.	.	.	.	.	.
8d	-board,	8A	-board,	.	.	.	.	.	.
8c	he	4r	.	.	.	.	D	.	.
8d	one	.	.	.	.	.	B	.	.
=34	=34	=34	=34	=34	=34	=34	=34	=34	=34
8r	.	8r	.	1Dm	.	voice	.	96.011	D:min
.	.	8Bq	_	.	.	.	.	.	.
4f	spi-	4c	spi-	.	.	.	.	.	.
8d	-nal	8B	-nal	.	.	.	.	.	.
8f	crac-	8c	crac-	.	.	.	.	.	.
8d	-ker,	8A	-ker,	.	.	.	.	.	.
8c	he	4r	.	.	.	.	D	.	.
8d	got	.	.	.	.	.	B	.	.
=35	=35	=35	=35	=35	=35	=35	=35	=35	=35
8r	.	8r	.	1Am	newline	voice	.	98.93	A:min
8dq	_	8Bq	_	.	.	.	.	.	.
8e	feet	8c	feet	.	.	.	D	.	.
4r	.	4r	.	.	.	.	.	.	.
8d#q	_	8Bq	_	.	.	.	.	.	.
4e	down	4c	down	.	.	.	.	.	.
8d	be-	8c	be-	.	.	.	.	.	.
[8e	-low	8c	-low	.	.	.	C	.	.
=36	=36	=36	=36	=36	=36	=36	=36	=36	=36
4e]	_	8c#	_	1Am	.	voice	.	101.858	A:min
.	.	8c	_	.	.	.	.	.	.
8d	his	8B-	his	.	.	.	F	.	.
8e	knee	8c	knee	.	.	.	D	.	.
2r	.	2r	.	.	.	.	.	.	.
=37	=37	=37	=37	=37	=37	=37	=37	=37	=37
8~f	hold	1r	.	1Gm	.	voice	C	104.787	G:1
8f	you	.	.	.	.	.	a	.	.
8f	in	.	.	.	.	.	F	.	.
8f	his	.	.	.	.	.	f	.	.
8f	arm-	.	.	.	.	.	.	.	.
8f	-chair,	.	.	.	.	.	.	.	.
8f	you	.	.	.	.	.	A	.	.
8f	can	.	.	.	.	.	.	.	.
=38	=38	=38	=38	=38	=38	=38	=38	=38	=38
8~f	feel	2r	.	1Gm	.	voice	D	107.715	G:1
8f	his	.	.	.	.	.	F	.	.
8f	dis-	.	.	.	.	.	(f	.	.
[8f	-ease	.	.	.	.	.	D)	.	.
8~f]	_	4r	.	.	.	.	.	.	.
8r	.	.	.	.	.	.	.	.	.
8d	Come	8A	Come	.	.	.	.	.	.
16d	to-	16A	to-	.	.	.	.	.	.
8gq	_	.	.	.	.	.	.	.	.
[16a	-ge	[16d	-ge	.	.	.	.	.	.
=39	=39	=39	=39	=39	=39	=39	=39	=39	=39
*>Letter>C	*>Letter>C	*>Letter>C	*>Letter>C	*>Letter>C	*>Letter>C	*>Letter>C	*>Letter>C	*>Letter>C	*>Letter>C
*>Label>Chorus	*>Label>Chorus	*>Label>Chorus	*>Label>Chorus	*>Label>Chorus	*>Label>Chorus	*>Label>Chorus	*>Label>Chorus	*>Label>Chorus	*>Label>Chorus
16a]	_	16d]	_	2.Bm	newline	voice	.	110.644	B:5
16eQ	_	16AQ	_	.	.	.	.	.	.
8.f#	ther	8.B	ther	.	.	.	.	.	.
4r	.	4r	.	.	.	.	.	.	.
4r	.	2r	.	.	.	.	.	.	.
8eq	_	.	.	.	.	.	.	.	.
4f#	right	.	.	4Am	.	voice	.	112.812	A:5
=40	=40	=40	=40	=40	=40	=40	=40	=40	=40
16e	now	1r	.	2Gm	.	voice	.	113.534	G:5
16d	_	.	.	.	.	.	.	.	.
8B	_	.	.	.	.	.	.	.	.
4r	.	.	.	.	.	.	.	.	.
4r	.	.	.	2Am	.	voice	.	114.98	A:5
8B	o-	.	.	.	.	.	.	.	.
16d	-ver	.	.	.	.	.	.	.	.
16d	me!	.	.	.	.	.	D	.	.
=41	=41	=41	=41	=41	=41	=41	=41	=41	=41
*>Letter>A	*>Letter>A	*>Letter>A	*>Letter>A	*>Letter>A	*>Letter>A	*>Letter>A	*>Letter>A	*>Letter>A	*>Letter>A
*>Label>Interlude	*>Label>Interlude	*>Label>Interlude	*>Label>Interlude	*>Label>Interlude	*>Label>Interlude	*>Label>Interlude	*>Label>Interlude	*>Label>Interlude	*>Label>Interlude
2r	.	1r	.	1Dmm	newline	guitar	.	116.425	D:min7
4r	.	.	.	.	.	.	.	.	.
8.r	.	.	.	.	.	.	.	.	.
16d	Sh-	.	.	.	.	.	.	.	.
=42	=42	=42	=42	=42	=42	=42	=42	=42	=42
16d	-oo!	1r	.	1Dmm	.	guitar	A	119.224	D:min7
16r	.	.	.	.	.	.	.	.	.
8r	.	.	.	.	.	.	.	.	.
4r	.	.	.	.	.	.	.	.	.
8.r	.	.	.	.	.	.	.	.	.
[16b-	Right!	.	.	.	.	.	.	.	.
4b-]	_	.	.	.	.	.	.	.	.
=43	=43	=43	=43	=43	=43	=43	=43	=43	=43
*>Letter>B2	*>Letter>B2	*>Letter>B2	*>Letter>B2	*>Letter>B2	*>Letter>B2	*>Letter>B2	*>Letter>B2	*>Letter>B2	*>Letter>B2
*>Label>Solo	*>Label>Solo	*>Label>Solo	*>Label>Solo	*>Label>Solo	*>Label>Solo	*>Label>Solo	*>Label>Solo	*>Label>Solo	*>Label>Solo
1r	.	1r	.	1Dm	newline	guitar	.	122.023	D:min
=44	=44	=44	=44	=44	=44	=44	=44	=44	=44
1r	.	1r	.	1Dm	.	guitar	.	124.918	D:min
=45	=45	=45	=45	=45	=45	=45	=45	=45	=45
1r	.	1r	.	1Dm	.	guitar	.	127.813	D:min
=46	=46	=46	=46	=46	=46	=46	=46	=46	=46
2r	.	1r	.	1Dm	.	guitar	.	130.708	D:min
8.r	.	.	.	.	.	.	.	.	.
[16g	Come	.	.	.	.	.	.	.	.
16g]	_	.	.	.	.	.	.	.	.
8d	on	.	.	.	.	.	.	.	.
16r	.	.	.	.	.	.	.	.	.
=47	=47	=47	=47	=47	=47	=47	=47	=47	=47
1r	.	1r	.	1Am	newline	guitar	.	133.603	A:min
=48	=48	=48	=48	=48	=48	=48	=48	=48	=48
1r	.	1r	.	1Am	.	guitar	.	136.488	A:min
=49	=49	=49	=49	=49	=49	=49	=49	=49	=49
1r	.	1r	.	1Am	.	guitar	.	139.374	A:min
=50	=50	=50	=50	=50	=50	=50	=50	=50	=50
1r	.	1r	.	1Am	.	guitar	.	142.26	A:min
=51	=51	=51	=51	=51	=51	=51	=51	=51	=51
*>Letter>A2	*>Letter>A2	*>Letter>A2	*>Letter>A2	*>Letter>A2	*>Letter>A2	*>Letter>A2	*>Letter>A2	*>Letter>A2	*>Letter>A2
*>Label>Interlude	*>Label>Interlude	*>Label>Interlude	*>Label>Interlude	*>Label>Interlude	*>Label>Interlude	*>Label>Interlude	*>Label>Interlude	*>Label>Interlude	*>Label>Interlude
1r	.	1r	.	1Dmm	newline	guitar	.	145.145	D:min7
=52	=52	=52	=52	=52	=52	=52	=52	=52	=52
1r	.	1r	.	1Dmm	.	guitar	.	148.013	D:min7
=53	=53	=53	=53	=53	=53	=53	=53	=53	=53
*>Letter>B	*>Letter>B	*>Letter>B	*>Letter>B	*>Letter>B	*>Letter>B	*>Letter>B	*>Letter>B	*>Letter>B	*>Letter>B
*>Label>Verse	*>Label>Verse	*>Label>Verse	*>Label>Verse	*>Label>Verse	*>Label>Verse	*>Label>Verse	*>Label>Verse	*>Label>Verse	*>Label>Verse
8r	.	1r	.	1Dm	newline	voice	.	150.881	D:min
8eq	_	.	.	.	.	.	.	.	.
8f	He	.	.	.	.	.	D	.	.
8f	rol-	.	.	.	.	.	(C	.	.
16d	-ler	.	.	.	.	.	c)	.	.
16~f	coas	.	.	.	.	.	(C	.	.
16r	.	.	.	.	.	.	.	.	.
8d	ter	.	.	.	.	.	c)	.	.
16r	.	.	.	.	.	.	.	.	.
8c	he	.	.	.	.	.	D	.	.
8d	got	.	.	.	.	.	B	.	.
=54	=54	=54	=54	=54	=54	=54	=54	=54	=54
8r	.	8r	.	1Dm	.	voice	.	153.837	D:min
8eq	_	8Bq	_	.	.	.	.	.	.
4f	ear-	8c	ear-	.	.	.	.	.	.
.	.	4~B	_	.	.	.	.	.	.
8d	-ly	.	.	.	.	.	d	.	.
8f	war-	8c	-war-	.	.	.	.	.	.
8d	-ning,	8~A	-ning,	.	.	.	d	.	.
8c	he	4r	.	.	.	.	D	.	.
8d	got	.	.	.	.	.	B	.	.
=55	=55	=55	=55	=55	=55	=55	=55	=55	=55
8r	.	8r	.	1Dm	.	voice	.	156.793	D:min
16eQ	_	8Bq	_	.	.	.	.	.	.
4f	mud-	4c	mud-	.	.	.	(E	.	.
8d	-dy	8B	-dy	.	.	.	d)	.	.
8f	wa-	8c	wa-	.	.	.	.	.	.
8d	-ter,	8A	-ter,	.	.	.	.	.	.
8c	he	4r	.	.	.	.	D	.	.
8d	one	.	.	.	.	.	B	.	.
=56	=56	=56	=56	=56	=56	=56	=56	=56	=56
8r	.	8r	.	1Dm	.	voice	.	159.748	D:min
8eq	_	8Bq	_	.	.	.	.	.	.
4f	mo-	4c	mo-	.	.	.	(E	.	.
8d	-jo	8B	-jo	.	.	.	E)	.	.
8f	fil-	8c	fil-	.	.	.	.	.	.
8d	-ter,	8A	-ter,	.	.	.	.	.	.
8c	he	4r	.	.	.	.	D	.	.
8d	say	.	.	.	.	.	.	.	.
=57	=57	=57	=57	=57	=57	=57	=57	=57	=57
8r	.	8r	.	1Am	newline	voice	.	162.704	A:min
8dq	_	8B#q	_	.	.	.	.	.	.
4e	\\\"one	4c#	\\\"one	.	.	.	B	.	.
8d	and	8B#	and	.	.	.	.	.	.
4e	one	4c#	one	.	.	.	B	.	.
8d	and	8B#	and	.	.	.	.	.	.
[8e	one	[8c#	one	.	.	.	B	.	.
=58	=58	=58	=58	=58	=58	=58	=58	=58	=58
4e]	_	4c#]	_	1Am	.	voice	.	165.629	A:min
8d	is	8B#	is	.	.	.	.	.	.
8e	three,\\\"	8c#	three,\\\"	.	.	.	D	.	.
2r	.	2r	.	.	.	.	.	.	.
=59	=59	=59	=59	=59	=59	=59	=59	=59	=59
8f	got	8f	got	1Gm	.	voice	B	168.555	G:1
8f	to	8f	to	.	.	.	A	.	.
8f	be	8f	be	.	.	.	D	.	.
8f	good	16f	good	.	.	.	A	.	.
.	.	16f	l-	.	.	.	.	.	.
8~f	loo-	8f	-loo-	.	.	.	(A	.	.
8~f	-king	8f	-king	.	.	.	d)	.	.
8f	cuz	8f	cuz	.	.	.	E	.	.
8f	he	8f	he	.	.	.	D	.	.
=60	=60	=60	=60	=60	=60	=60	=60	=60	=60
8f	so	8f	so	1Gm	.	voice	.	171.48	G:1
8f	hard	8f	hard	.	.	.	.	.	.
8d	to	8d	to	.	.	.	A	.	.
[8f	see	[8f	see	.	.	.	D	.	.
8f]	_	8f]	_	.	.	.	.	.	.
8r	.	8r	.	.	.	.	.	.	.
8d	Come	8A	Come	.	.	.	.	.	.
16d	to	16A	to	.	.	.	.	.	.
8gq	_	.	.	.	.	.	.	.	.
[16a	ge	[16d	ge	.	.	.	.	.	.
=61	=61	=61	=61	=61	=61	=61	=61	=61	=61
*>Letter>C	*>Letter>C	*>Letter>C	*>Letter>C	*>Letter>C	*>Letter>C	*>Letter>C	*>Letter>C	*>Letter>C	*>Letter>C
*>Label>Chorus	*>Label>Chorus	*>Label>Chorus	*>Label>Chorus	*>Label>Chorus	*>Label>Chorus	*>Label>Chorus	*>Label>Chorus	*>Label>Chorus	*>Label>Chorus
16a]	_	16d]	_	2.Bm	newline	voice	.	174.405	B:5
16eQ	_	16AQ	_	.	.	.	.	.	.
8.f#	ther	8.B	ther	.	.	.	.	.	.
4r	.	4r	.	.	.	.	.	.	.
4r	.	2r	.	.	.	.	.	.	.
8eq	_	.	.	.	.	.	.	.	.
4f#	right	.	.	4Am	.	voice	.	176.599	A:5
=62	=62	=62	=62	=62	=62	=62	=62	=62	=62
16e	now	1r	.	2Gm	.	voice	.	177.331	G:5
16d	_	.	.	.	.	.	.	.	.
8B	_	.	.	.	.	.	.	.	.
4r	.	.	.	.	.	.	.	.	.
4r	.	.	.	2Am	.	voice	.	178.794	A:5
8B	o-	.	.	.	.	.	.	.	.
16d	-ver	.	.	.	.	.	.	.	.
16d	me!	.	.	.	.	.	D	.	.
=63	=63	=63	=63	=63	=63	=63	=63	=63	=63
*>Letter>A	*>Letter>A	*>Letter>A	*>Letter>A	*>Letter>A	*>Letter>A	*>Letter>A	*>Letter>A	*>Letter>A	*>Letter>A
*>Label>Interlude	*>Label>Interlude	*>Label>Interlude	*>Label>Interlude	*>Label>Interlude	*>Label>Interlude	*>Label>Interlude	*>Label>Interlude	*>Label>Interlude	*>Label>Interlude
2r	.	1r	.	1Dm	newline	guitar	.	180.257	D:min
4r	.	.	.	.	.	.	.	.	.
8.r	.	.	.	.	.	.	.	.	.
16d	Sh-	.	.	.	.	.	.	.	.
=64	=64	=64	=64	=64	=64	=64	=64	=64	=64
16d	-oo!	1r	.	1Dm	.	guitar	A	183.09	D:min
8.r	.	.	.	.	.	.	.	.	.
4r	.	.	.	.	.	.	.	.	.
4r	.	.	.	.	.	.	.	.	.
8.r	.	.	.	.	.	.	.	.	.
16d	Sh-	.	.	.	.	.	.	.	.
=65	=65	=65	=65	=65	=65	=65	=65	=65	=65
16d	-oo!	1r	.	1Dm	.	guitar	A	185.923	D:min
8.r	.	.	.	.	.	.	.	.	.
4r	.	.	.	.	.	.	.	.	.
4r	.	.	.	.	.	.	.	.	.
8.r	.	.	.	.	.	.	.	.	.
16d	Sh-	.	.	.	.	.	.	.	.
=66	=66	=66	=66	=66	=66	=66	=66	=66	=66
16d	-oo!	1r	.	1Dm	.	guitar	A	188.756	D:min
16r	.	.	.	.	.	.	.	.	.
8r	.	.	.	.	.	.	.	.	.
4r	.	.	.	.	.	.	.	.	.
4r	.	.	.	.	.	.	.	.	.
16r	.	.	.	.	.	.	.	.	.
8.a-	Ungh!	.	.	.	.	.	.	.	.
=67	=67	=67	=67	=67	=67	=67	=67	=67	=67
*>Letter>A2	*>Letter>A2	*>Letter>A2	*>Letter>A2	*>Letter>A2	*>Letter>A2	*>Letter>A2	*>Letter>A2	*>Letter>A2	*>Letter>A2
*>Label>Outro	*>Label>Outro	*>Label>Outro	*>Label>Outro	*>Label>Outro	*>Label>Outro	*>Label>Outro	*>Label>Outro	*>Label>Outro	*>Label>Outro
1r	.	1r	.	1Dmm	newline	guitar	.	191.589	D:min13
=68	=68	=68	=68	=68	=68	=68	=68	=68	=68
1r	.	1r	.	1Dmm	.	guitar	.	194.462	D:min13
=69	=69	=69	=69	=69	=69	=69	=69	=69	=69
4r	.	1r	.	1Dmm	.	guitar	.	197.335	D:min13
8e	Come	.	.	.	.	.	.	.	.
16f	to-	.	.	.	.	.	.	.	.
[16e	-ge	.	.	.	.	.	.	.	.
16e]	_	.	.	.	.	.	.	.	.
8d	ther	.	.	.	.	.	.	.	.
16r	.	.	.	.	.	.	.	.	.
4r	.	.	.	.	.	.	.	.	.
=70	=70	=70	=70	=70	=70	=70	=70	=70	=70
4r	.	1r	.	1Dmm	.	guitar	.	200.209	D:min13
8f	Yeah!	.	.	.	.	.	.	.	.
2r	.	.	.	.	.	.	.	.	.
8r	.	.	.	.	.	.	.	.	.
=71	=71	=71	=71	=71	=71	=71	=71	=71	=71
4r	.	1r	.	1Dmm	newline	guitar	.	203.082	D:min13
8e	Come	.	.	.	.	.	.	.	.
16f	to-	.	.	.	.	.	.	.	.
[16e	-ge	.	.	.	.	.	.	.	.
16e]	_	.	.	.	.	.	.	.	.
8d	ther	.	.	.	.	.	.	.	.
16r	.	.	.	.	.	.	.	.	.
4r	.	.	.	.	.	.	.	.	.
=72	=72	=72	=72	=72	=72	=72	=72	=72	=72
4c	Yeah!	1r	.	1Dmm	.	guitar	.	205.909	D:min13
4r	.	.	.	.	.	.	.	.	.
2r	.	.	.	.	.	.	.	.	.
=73	=73	=73	=73	=73	=73	=73	=73	=73	=73
4r	.	1r	.	1Dmm	.	guitar	.	208.736	D:min13
8e	Come	.	.	.	.	.	.	.	.
16f	to-	.	.	.	.	.	.	.	.
[16e	-ge	.	.	.	.	.	.	.	.
16e]	_	.	.	.	.	.	.	.	.
8d	ther	.	.	.	.	.	.	.	.
16r	.	.	.	.	.	.	.	.	.
4r	.	.	.	.	.	.	.	.	.
=74	=74	=74	=74	=74	=74	=74	=74	=74	=74
4d	Yeah!	1r	.	1Dmm	.	guitar	.	211.563	D:min13
4r	.	.	.	.	.	.	.	.	.
2r	.	.	.	.	.	.	.	.	.
=75	=75	=75	=75	=75	=75	=75	=75	=75	=75
4r	.	1r	.	1Dmm	newline	guitar	.	214.39	D:min13
8e	Come	.	.	.	.	.	.	.	.
16f	to-	.	.	.	.	.	.	.	.
[16e	-ge	.	.	.	.	.	.	.	.
16e]	_	.	.	.	.	.	.	.	.
8d	ther	.	.	.	.	.	.	.	.
16r	.	.	.	.	.	.	.	.	.
4r	.	.	.	.	.	.	.	.	.
=76	=76	=76	=76	=76	=76	=76	=76	=76	=76
4d	Yeah!	1r	.	1Dmm	.	guitar	.	217.227	D:min13
4r	.	.	.	.	.	.	.	.	.
2r	.	.	.	.	.	.	.	.	.
=77	=77	=77	=77	=77	=77	=77	=77	=77	=77
4r	.	1r	.	1Dmm	.	guitar	.	220.065	D:min13
8e	Come	.	.	.	.	.	.	.	.
16f	to-	.	.	.	.	.	.	.	.
[16e	-ge	.	.	.	.	.	.	.	.
16e]	_	.	.	.	.	.	.	.	.
8d	ther	.	.	.	.	.	.	.	.
16r	.	.	.	.	.	.	.	.	.
8.r	.	.	.	.	.	.	.	.	.
16d	Y-	.	.	.	.	.	.	.	.
=78	=78	=78	=78	=78	=78	=78	=78	=78	=78
4a	-yeah!	1r	.	1Dmm	.	guitar	.	222.902	D:min13
4r	.	.	.	.	.	.	.	.	.
2r	.	.	.	.	.	.	.	.	.
=79	=79	=79	=79	=79	=79	=79	=79	=79	=79
4r	.	1r	.	1Dmm	newline	guitar	.	225.74	D:min13
8e	Come	.	.	.	.	.	.	.	.
16f	to-	.	.	.	.	.	.	.	.
[16e	-ge	.	.	.	.	.	.	.	.
16e]	_	.	.	.	.	.	.	.	.
8d	ther	.	.	.	.	.	.	.	.
16r	.	.	.	.	.	.	.	.	.
8.r	.	.	.	.	.	.	.	.	.
16ccQ	_	.	.	.	.	.	.	.	.
[16dd	Yeah	.	.	.	.	.	.	.	.
=80	=80	=80	=80	=80	=80	=80	=80	=80	=80
2.dd]	_	1r	.	1Dmm	.	guitar	.	228.561	D:min13
8r	.	.	.	.	.	.	.	.	.
8r	.	.	.	.	.	.	.	.	.
=81	=81	=81	=81	=81	=81	=81	=81	=81	=81
4r	.	1r	.	1Dmm	.	guitar	.	231.382	D:min13
8e	Come	.	.	.	.	.	.	.	.
16f	to-	.	.	.	.	.	.	.	.
[16e	-ge	.	.	.	.	.	.	.	.
16e]	_	.	.	.	.	.	.	.	.
8d	ther	.	.	.	.	.	.	.	.
16r	.	.	.	.	.	.	.	.	.
8.r	.	.	.	.	.	.	.	.	.
16ccQ	_	.	.	.	.	.	.	.	.
[16dd	Yeah	.	.	.	.	.	.	.	.
=82	=82	=82	=82	=82	=82	=82	=82	=82	=82
2dd]	_	1r	.	1Dmm	.	guitar	.	234.203	D:min13
2r	.	.	.	.	.	.	.	.	.
=83	=83	=83	=83	=83	=83	=83	=83	=83	=83
*>Label>>Fadeout	*>Label>>Fadeout	*>Label>>Fadeout	*>Label>>Fadeout	*>Label>>Fadeout	*>Label>>Fadeout	*>Label>>Fadeout	*>Label>>Fadeout	*>Label>>Fadeout	*>Label>>Fadeout
4r	.	1r	.	1Dmm	newline	guitar	.	237.024	D:min13
[2.~D	Uh!	.	.	.	.	.	.	.	.
=84	=84	=84	=84	=84	=84	=84	=84	=84	=84
4~D]	_	1r	.	1Dmm	.	guitar	.	239.824	D:min13
4r	.	.	.	.	.	.	.	.	.
2r	.	.	.	.	.	.	.	.	.
=85	=85	=85	=85	=85	=85	=85	=85	=85	=85
4r	.	1r	.	1Dmm	.	guitar	.	242.623	D:min13
8e	Come	.	.	.	.	.	.	.	.
16f	to-	.	.	.	.	.	.	.	.
[16e	-ge	.	.	.	.	.	.	.	.
16e]	_	.	.	.	.	.	.	.	.
8d	ther	.	.	.	.	.	.	.	.
16r	.	.	.	.	.	.	.	.	.
8.r	.	.	.	.	.	.	.	.	.
[16~e	Yeah!	.	.	.	.	.	.	.	.
=86	=86	=86	=86	=86	=86	=86	=86	=86	=86
8.~e]	_	1r	.	1Dmm	.	guitar	.	245.422	D:min13
16r	.	.	.	.	.	.	.	.	.
4r	.	.	.	.	.	.	.	.	.
2r	.	.	.	.	.	.	.	.	.
=87	=87	=87	=87	=87	=87	=87	=87	=87	=87
4r	.	1r	.	1Dmm	newline	guitar	.	248.221	D:min13
8e	Come	.	.	.	.	.	.	.	.
16f	to-	.	.	.	.	.	.	.	.
[16e	-ge	.	.	.	.	.	.	.	.
16e]	_	.	.	.	.	.	.	.	.
8d	ther	.	.	.	.	.	.	.	.
16r	.	.	.	.	.	.	.	.	.
8.r	.	.	.	.	.	.	.	.	.
16ccQ	_	.	.	.	.	.	.	.	.
[16dd	Yeah	.	.	.	.	.	.	.	.
=88	=88	=88	=88	=88	=88	=88	=88	=88	=88
2.dd_	_	1r	.	1Dmm	.	guitar	.	249.48	D:min13
8dd]	_	.	.	.	.	.	.	.	.
8r	.	.	.	.	.	.	.	.	.
=89	=89	=89	=89	=89	=89	=89	=89	=89	=89
4r	.	1r	.	1Dmm	.	guitar	.	250.738	D:min13
8e	Come	.	.	.	.	.	.	.	.
16f	to-	.	.	.	.	.	.	.	.
[16e	-ge	.	.	.	.	.	.	.	.
16e]	_	.	.	.	.	.	.	.	.
8d	ther	.	.	.	.	.	.	.	.
16r	.	.	.	.	.	.	.	.	.
4r	.	.	.	.	.	.	.	.	.
=90	=90	=90	=90	=90	=90	=90	=90	=90	=90
1r	.	1r	.	1Dmm	.	guitar	.	251.997	D:min13
=91	=91	=91	=91	=91	=91	=91	=91	=91	=91
1r	.	1r	.	1Dmm	.	guitar	.	253.255	D:min13
r;	.	r;	.	1r;	.	r	.	254.514	N.C.
r;	.	r;	.	1r;	.	r	.	259.997	N.C.
*-	*-	*-	*-	*-	*-	*-	*-	*-	*-
!!!BillboardChartDate: 1969/10/25
!!!BillboardPeak: 1
!!!BillboardWeeksOnChart: 16
!!!COC: The Beatles
!!!ENC: Nathaniel Condit-Schultz
!!!EST: Awating manual error checking and editing.
!!!OTL: Come Together
!!!RDF**chordsym: original McGill chord annotation + (implied pitch class set, with bass pitch in first position)
!!!RDF**harmony: **recip + pitch class of root + harmonic quality
!!!RDF**leadinstrument: original McGill primary instrumentation annotation
!!!RDF**phrase: newline = linebreak in original McGill transcription
!!!RDF**timestamp: McGill audio timestamp in seconds
!!!RDT: 2017/01/12/
!!!SampleActualRank: 13
!!!SampleID#: 0473
!!!SampleTargetRank: 13
